assests/images/8.svg

<svg xmlns="http://www.w3.org/2000/svg" xmlns:xlink="http://www.w3.org/1999/xlink" width="1024" zoomAndPan="magnify" viewBox="0 0 768 767.999994" height="1024" preserveAspectRatio="xMidYMid meet" version="1.0"><defs><clipPath id="a37ef011e4"><path d="M 163.519531 203 L 550 203 L 550 492 L 163.519531 492 Z M 163.519531 203 " clip-rule="nonzero"/></clipPath><clipPath id="8cc9444912"><path d="M 558 281 L 604.519531 281 L 604.519531 297 L 558 297 Z M 558 281 " clip-rule="nonzero"/></clipPath><clipPath id="6a87b59b7f"><path d="M 456 147.875 L 471 147.875 L 471 195 L 456 195 Z M 456 147.875 " clip-rule="nonzero"/></clipPath><clipPath id="a22ce12e1f"><path d="M 274 555 L 325 555 L 325 620.375 L 274 620.375 Z M 274 555 " clip-rule="nonzero"/></clipPath><clipPath id="310eec6937"><path d="M 361 555 L 412 555 L 412 620.375 L 361 620.375 Z M 361 555 " clip-rule="nonzero"/></clipPath></defs><g clip-path="url(#a37ef011e4)"><path fill="#000000" d="M 549.011719 289.0625 C 549.011719 241.832031 510.628906 203.410156 463.453125 203.410156 C 421.875 203.410156 386.804688 232.816406 379.308594 273.558594 C 364.105469 258.832031 343.539062 250.09375 321.691406 250.09375 C 278.453125 250.09375 242.828125 283.273438 238.96875 325.507812 C 196.699219 329.421875 163.535156 365.011719 163.535156 408.320312 C 163.535156 454.148438 200.773438 491.449219 246.632812 491.449219 L 440.039062 491.449219 C 485.523438 491.074219 522.546875 453.824219 522.546875 408.320312 C 522.546875 391.355469 517.300781 375.339844 508.277344 361.9375 C 533.785156 346.195312 549.011719 318.960938 549.011719 289.0625 Z M 392.410156 289.0625 C 392.410156 288.023438 392.40625 286.984375 392.515625 285.804688 C 394.183594 247.808594 425.34375 218.042969 463.453125 218.042969 C 502.59375 218.042969 534.4375 249.902344 534.4375 289.0625 C 534.4375 313.976562 521.085938 337.390625 499.585938 350.164062 C 499.402344 350.273438 499.28125 350.429688 499.113281 350.554688 C 490.195312 341.304688 479.195312 334.054688 466.667969 329.742188 C 462.542969 304.660156 440.789062 285.792969 414.859375 285.792969 C 407.253906 285.792969 399.859375 287.453125 393 290.617188 C 392.792969 290.269531 392.570312 289.953125 392.359375 289.613281 C 392.367188 289.425781 392.410156 289.253906 392.410156 289.0625 Z M 439.984375 475.371094 L 246.632812 475.371094 C 246.578125 475.371094 246.578125 475.371094 246.523438 475.371094 C 209.613281 475.316406 179.609375 445.25 179.609375 408.320312 C 179.609375 371.335938 209.664062 341.214844 246.632812 341.214844 C 255.523438 341.214844 264.152344 342.929688 272.292969 346.304688 C 276.417969 348.019531 281.132812 346.089844 282.796875 341.960938 C 284.507812 337.890625 282.582031 333.171875 278.453125 331.457031 C 271.007812 328.347656 263.132812 326.417969 255.097656 325.5625 C 258.902344 292.167969 287.296875 266.171875 321.691406 266.171875 C 345.585938 266.171875 367.660156 279.039062 379.550781 299.457031 C 374.355469 304.175781 370.121094 309.964844 367.125 316.394531 C 365.300781 320.46875 367.070312 325.238281 371.085938 327.0625 C 375.105469 328.9375 379.875 327.167969 381.75 323.148438 C 382.714844 320.953125 383.945312 318.914062 385.390625 316.988281 C 387.375 314.144531 389.839844 311.625 392.625 309.484375 C 393.210938 309.054688 393.75 308.625 394.339844 308.25 C 400.445312 304.066406 407.519531 301.871094 414.859375 301.871094 C 434.199219 301.871094 450.164062 316.988281 451.234375 336.28125 C 451.449219 339.765625 453.804688 342.714844 457.128906 343.625 C 467.898438 346.574219 477.488281 352.09375 485.308594 359.4375 C 487.773438 361.738281 490.023438 364.207031 492.113281 366.886719 C 501.167969 378.410156 506.472656 392.882812 506.472656 408.316406 C 506.472656 444.980469 476.628906 475.105469 439.984375 475.371094 Z M 439.984375 475.371094 " fill-opacity="1" fill-rule="nonzero"/></g><g clip-path="url(#8cc9444912)"><path fill="#000000" d="M 597.265625 281.761719 L 565.703125 281.761719 C 561.683594 281.761719 558.410156 285.039062 558.410156 289.058594 C 558.410156 293.082031 561.683594 296.355469 565.703125 296.355469 L 597.265625 296.355469 C 601.289062 296.355469 604.558594 293.082031 604.558594 289.058594 C 604.558594 285.039062 601.289062 281.761719 597.265625 281.761719 Z M 597.265625 281.761719 " fill-opacity="1" fill-rule="nonzero"/></g><g clip-path="url(#6a87b59b7f)"><path fill="#000000" d="M 463.4375 194.042969 C 467.460938 194.042969 470.734375 190.765625 470.734375 186.746094 L 470.734375 155.171875 C 470.734375 151.148438 467.460938 147.875 463.4375 147.875 C 459.417969 147.875 456.144531 151.148438 456.144531 155.171875 L 456.144531 186.746094 C 456.144531 190.765625 459.417969 194.042969 463.4375 194.042969 Z M 463.4375 194.042969 " fill-opacity="1" fill-rule="nonzero"/></g><path fill="#000000" d="M 535.753906 224.011719 C 537.699219 224.011719 539.527344 223.25 540.90625 221.871094 L 563.226562 199.546875 C 564.605469 198.164062 565.363281 196.332031 565.363281 194.386719 C 565.363281 192.4375 564.605469 190.605469 563.226562 189.226562 C 560.46875 186.46875 555.671875 186.46875 552.914062 189.226562 L 530.597656 211.554688 C 527.753906 214.398438 527.753906 219.027344 530.597656 221.871094 C 531.976562 223.25 533.804688 224.011719 535.753906 224.011719 Z M 535.753906 224.011719 " fill-opacity="1" fill-rule="nonzero"/><path fill="#000000" d="M 540.90625 356.246094 C 538.152344 353.488281 533.351562 353.488281 530.597656 356.242188 C 529.21875 357.621094 528.457031 359.453125 528.457031 361.40625 C 528.457031 363.355469 529.21875 365.1875 530.597656 366.5625 L 552.910156 388.886719 C 554.285156 390.269531 556.117188 391.027344 558.070312 391.027344 C 560.019531 391.027344 561.851562 390.269531 563.226562 388.890625 C 564.605469 387.511719 565.363281 385.679688 565.363281 383.730469 C 565.363281 381.78125 564.605469 379.949219 563.226562 378.570312 Z M 540.90625 356.246094 " fill-opacity="1" fill-rule="nonzero"/><path fill="#000000" d="M 385.96875 221.875 C 387.351562 223.25 389.183594 224.011719 391.125 224.011719 C 393.070312 224.011719 394.898438 223.25 396.28125 221.871094 C 397.660156 220.492188 398.417969 218.660156 398.417969 216.714844 C 398.417969 214.765625 397.660156 212.933594 396.28125 211.554688 L 373.964844 189.226562 C 371.207031 186.46875 366.410156 186.46875 363.648438 189.226562 C 362.269531 190.605469 361.511719 192.4375 361.511719 194.386719 C 361.511719 196.332031 362.269531 198.164062 363.648438 199.546875 Z M 385.96875 221.875 " fill-opacity="1" fill-rule="nonzero"/><path fill="#000000" d="M 256.679688 565.691406 C 242.824219 565.691406 231.554688 554.417969 231.554688 540.558594 C 231.554688 528.328125 249.039062 506.496094 252.546875 502.242188 C 254.582031 499.773438 258.777344 499.769531 260.8125 502.242188 C 264.316406 506.496094 281.804688 528.328125 281.804688 540.558594 C 281.804688 554.417969 270.53125 565.691406 256.679688 565.691406 Z M 256.683594 514.324219 C 249.738281 523.554688 242.269531 535.414062 242.269531 540.558594 C 242.269531 548.507812 248.734375 554.972656 256.679688 554.972656 C 264.625 554.972656 271.089844 548.507812 271.089844 540.558594 C 271.089844 535.40625 263.621094 523.550781 256.683594 514.324219 Z M 256.683594 514.324219 " fill-opacity="1" fill-rule="nonzero"/><path fill="#000000" d="M 343.015625 565.691406 C 329.160156 565.691406 317.886719 554.417969 317.886719 540.558594 C 317.886719 528.328125 335.375 506.496094 338.882812 502.242188 C 340.917969 499.773438 345.113281 499.773438 347.148438 502.242188 C 350.652344 506.496094 368.140625 528.328125 368.140625 540.558594 C 368.140625 554.417969 356.867188 565.691406 343.015625 565.691406 Z M 343.015625 514.324219 C 336.070312 523.554688 328.601562 535.414062 328.601562 540.558594 C 328.601562 548.507812 335.066406 554.972656 343.015625 554.972656 C 350.960938 554.972656 357.425781 548.507812 357.425781 540.558594 C 357.425781 535.40625 349.957031 523.550781 343.015625 514.324219 Z M 343.015625 514.324219 " fill-opacity="1" fill-rule="nonzero"/><path fill="#000000" d="M 429.347656 565.691406 C 415.496094 565.691406 404.222656 554.417969 404.222656 540.558594 C 404.222656 528.328125 421.710938 506.496094 425.214844 502.242188 C 427.253906 499.773438 431.449219 499.773438 433.484375 502.242188 C 436.988281 506.496094 454.476562 528.328125 454.476562 540.558594 C 454.476562 554.417969 443.203125 565.691406 429.347656 565.691406 Z M 429.347656 514.324219 C 422.40625 523.554688 414.9375 535.414062 414.9375 540.558594 C 414.9375 548.507812 421.402344 554.972656 429.347656 554.972656 C 437.296875 554.972656 443.761719 548.507812 443.761719 540.558594 C 443.761719 535.40625 436.292969 523.550781 429.347656 514.324219 Z M 429.347656 514.324219 " fill-opacity="1" fill-rule="nonzero"/><g clip-path="url(#a22ce12e1f)"><path fill="#000000" d="M 299.847656 620.375 C 285.996094 620.375 274.722656 609.097656 274.722656 595.238281 C 274.722656 583.007812 292.210938 561.175781 295.714844 556.921875 C 297.75 554.453125 301.945312 554.453125 303.980469 556.921875 C 307.488281 561.175781 324.976562 583.007812 324.976562 595.238281 C 324.972656 609.097656 313.703125 620.375 299.847656 620.375 Z M 299.847656 569.007812 C 292.90625 578.234375 285.4375 590.097656 285.4375 595.238281 C 285.4375 603.1875 291.902344 609.65625 299.847656 609.65625 C 307.796875 609.65625 314.257812 603.1875 314.257812 595.238281 C 314.257812 590.09375 306.789062 578.234375 299.847656 569.007812 Z M 299.847656 569.007812 " fill-opacity="1" fill-rule="nonzero"/></g><g clip-path="url(#310eec6937)"><path fill="#000000" d="M 386.183594 620.375 C 372.328125 620.375 361.058594 609.097656 361.058594 595.238281 C 361.058594 583.007812 378.542969 561.175781 382.050781 556.921875 C 384.085938 554.453125 388.28125 554.453125 390.316406 556.921875 C 393.824219 561.175781 411.3125 583.007812 411.3125 595.238281 C 411.3125 609.097656 400.039062 620.375 386.183594 620.375 Z M 386.183594 569.007812 C 379.242188 578.234375 371.773438 590.097656 371.773438 595.238281 C 371.773438 603.1875 378.234375 609.65625 386.183594 609.65625 C 394.128906 609.65625 400.59375 603.1875 400.59375 595.238281 C 400.59375 590.09375 393.125 578.234375 386.183594 569.007812 Z M 386.183594 569.007812 " fill-opacity="1" fill-rule="nonzero"/></g></svg>

<svg xmlns="http://www.w3.org/2000/svg" width="1024" viewBox="0 0 768 768" height="1024" version="1.0"><defs><clipPath id="a"><path d="M163.52 203H550v289H163.52Zm0 0"/></clipPath><clipPath id="b"><path d="M558 281h46.52v16H558Zm0 0"/></clipPath><clipPath id="c"><path d="M456 147.875h15V195h-15Zm0 0"/></clipPath><clipPath id="d"><path d="M274 555h51v65.375h-51Zm0 0"/></clipPath><clipPath id="e"><path d="M361 555h51v65.375h-51Zm0 0"/></clipPath></defs><g clip-path="url(#a)"><path d="M549.012 289.063c0-47.231-38.383-85.653-85.559-85.653-41.578 0-76.648 29.406-84.144 70.149-15.204-14.727-35.77-23.465-57.618-23.465-43.238 0-78.863 33.18-82.722 75.414-42.27 3.914-75.434 39.504-75.434 82.812 0 45.828 37.238 83.13 83.098 83.13h193.406c45.484-.376 82.508-37.626 82.508-83.13 0-16.965-5.246-32.98-14.27-46.382 25.508-15.743 40.735-42.977 40.735-72.875Zm-156.602 0c0-1.04-.004-2.079.106-3.258 1.668-37.996 32.828-67.762 70.937-67.762 39.14 0 70.985 31.86 70.985 71.02 0 24.914-13.352 48.328-34.852 61.101-.184.11-.305.266-.473.39-8.918-9.25-19.918-16.5-32.445-20.812-4.125-25.082-25.879-43.949-51.809-43.949-7.605 0-15 1.66-21.859 4.824-.207-.347-.43-.664-.64-1.004.007-.187.05-.36.05-.55Zm47.574 186.308H246.523c-36.91-.055-66.914-30.121-66.914-67.05 0-36.985 30.055-67.106 67.024-67.106 8.89 0 17.52 1.715 25.66 5.09 4.125 1.715 8.84-.215 10.504-4.344 1.71-4.07-.215-8.79-4.344-10.504-7.445-3.11-15.32-5.039-23.355-5.894 3.804-33.395 32.199-59.391 66.593-59.391 23.895 0 45.97 12.867 57.86 33.285-5.196 4.719-9.43 10.508-12.426 16.938-1.824 4.074-.055 8.843 3.96 10.668 4.02 1.875 8.79.105 10.665-3.915.965-2.195 2.195-4.234 3.64-6.16 1.985-2.843 4.45-5.363 7.235-7.504.586-.43 1.125-.859 1.715-1.234 6.105-4.184 13.18-6.379 20.52-6.379 19.34 0 35.304 15.117 36.374 34.41.215 3.485 2.57 6.434 5.895 7.344 10.77 2.95 20.36 8.469 28.18 15.813a63.83 63.83 0 0 1 6.804 7.449c9.055 11.523 14.36 25.996 14.36 41.43 0 36.663-29.844 66.788-66.489 67.054Zm0 0"/></g><g clip-path="url(#b)"><path d="M597.266 281.762h-31.563c-4.02 0-7.293 3.277-7.293 7.297 0 4.023 3.274 7.296 7.293 7.296h31.563c4.023 0 7.293-3.273 7.293-7.296 0-4.02-3.27-7.297-7.293-7.297Zm0 0"/></g><g clip-path="url(#c)"><path d="M463.438 194.043c4.023 0 7.296-3.277 7.296-7.297v-31.574c0-4.024-3.273-7.297-7.296-7.297-4.02 0-7.293 3.273-7.293 7.297v31.574c0 4.02 3.273 7.297 7.293 7.297Zm0 0"/></g><path d="M535.754 224.012a7.24 7.24 0 0 0 5.152-2.14l22.32-22.325a7.261 7.261 0 0 0 2.137-5.16c0-1.95-.758-3.782-2.136-5.16-2.758-2.758-7.555-2.758-10.313 0l-22.316 22.328c-2.844 2.843-2.844 7.472 0 10.316a7.243 7.243 0 0 0 5.156 2.14ZM540.906 356.246c-2.754-2.758-7.554-2.758-10.308-.004a7.254 7.254 0 0 0-2.141 5.164c0 1.95.762 3.781 2.14 5.156l22.313 22.325a7.222 7.222 0 0 0 5.16 2.14c1.95 0 3.782-.757 5.157-2.136a7.248 7.248 0 0 0 2.136-5.16c0-1.95-.758-3.782-2.136-5.16ZM385.969 221.875a7.275 7.275 0 0 0 5.156 2.137 7.256 7.256 0 0 0 5.156-2.14 7.245 7.245 0 0 0 2.137-5.157c0-1.95-.758-3.781-2.137-5.16l-22.316-22.328c-2.758-2.758-7.555-2.758-10.317 0a7.248 7.248 0 0 0-2.136 5.16c0 1.945.758 3.777 2.136 5.16ZM256.68 565.691c-13.856 0-25.125-11.273-25.125-25.132 0-12.23 17.484-34.063 20.992-38.317 2.035-2.469 6.23-2.472 8.266 0 3.503 4.254 20.992 26.086 20.992 38.317 0 13.859-11.274 25.132-25.125 25.132Zm.004-51.367c-6.946 9.23-14.414 21.09-14.414 26.235 0 7.949 6.464 14.414 14.41 14.414 7.945 0 14.41-6.465 14.41-14.414 0-5.153-7.469-17.008-14.406-26.235ZM343.016 565.691c-13.856 0-25.13-11.273-25.13-25.132 0-12.23 17.489-34.063 20.997-38.317 2.035-2.469 6.23-2.469 8.265 0 3.504 4.254 20.993 26.086 20.993 38.317 0 13.859-11.274 25.132-25.125 25.132Zm0-51.367c-6.946 9.23-14.414 21.09-14.414 26.235 0 7.949 6.464 14.414 14.414 14.414 7.945 0 14.41-6.465 14.41-14.414 0-5.153-7.469-17.008-14.41-26.235ZM429.348 565.691c-13.852 0-25.125-11.273-25.125-25.132 0-12.23 17.488-34.063 20.992-38.317 2.039-2.469 6.234-2.469 8.27 0 3.503 4.254 20.992 26.086 20.992 38.317 0 13.859-11.274 25.132-25.13 25.132Zm0-51.367c-6.942 9.23-14.41 21.09-14.41 26.235 0 7.949 6.464 14.414 14.41 14.414 7.949 0 14.414-6.465 14.414-14.414 0-5.153-7.469-17.008-14.414-26.235Zm0 0"/><g clip-path="url(#d)"><path d="M299.848 620.375c-13.852 0-25.125-11.277-25.125-25.137 0-12.23 17.488-34.062 20.992-38.316 2.035-2.469 6.23-2.469 8.265 0 3.508 4.254 20.997 26.086 20.997 38.316-.004 13.86-11.274 25.137-25.13 25.137Zm0-51.367c-6.942 9.226-14.41 21.09-14.41 26.23 0 7.95 6.464 14.418 14.41 14.418 7.949 0 14.41-6.468 14.41-14.418 0-5.144-7.469-17.004-14.41-26.23Zm0 0"/></g><g clip-path="url(#e)"><path d="M386.184 620.375c-13.856 0-25.125-11.277-25.125-25.137 0-12.23 17.484-34.062 20.992-38.316 2.035-2.469 6.23-2.469 8.265 0 3.508 4.254 20.997 26.086 20.997 38.316 0 13.86-11.274 25.137-25.13 25.137Zm0-51.367c-6.942 9.226-14.41 21.09-14.41 26.23 0 7.95 6.46 14.418 14.41 14.418 7.945 0 14.41-6.468 14.41-14.418 0-5.144-7.469-17.004-14.41-26.23Zm0 0"/></g></svg>
